flags/4x3/jo.svg

<svg xmlns="http://www.w3.org/2000/svg" id="flag-icon-css-jo" width="640" height="480">
  <defs>
    <clipPath id="a">
      <path fill-opacity=".67" d="M-117.82 0h682.67v512h-682.67z"/>
    </clipPath>
  </defs>
  <g clip-path="url(#a)" transform="translate(110.46) scale(.9375)">
    <g fill-rule="evenodd" stroke-width="1pt">
      <path d="M-117.82 0H906.182v170.667H-117.82z"/>
      <path fill="#fff" d="M-117.82 170.667H906.182v170.667H-117.82z"/>
      <path fill="#090" d="M-117.82 341.334H906.182v170.667H-117.82z"/>
      <path fill="red" d="M-117.82 512.001l512.001-256L-117.82 0v512.001z"/>
      <path fill="#fff" d="M24.528 288.964l5.664-24.82H4.743l22.928-11.045-15.867-19.9 22.93 11.05 5.664-24.82 5.661 24.82 22.93-11.05-15.866 19.9 22.93 11.045H50.602l5.663 24.82-15.867-19.92z"/>
    </g>
  </g>
</svg>

<svg xmlns="http://www.w3.org/2000/svg" id="flag-icon-css-jo" width="640" height="480">
  <defs>
    <clipPath id="a">
      <path fill-opacity=".67" d="M-117.82 0h682.67v512h-682.67z"/>
    </clipPath>
  </defs>
  <g clip-path="url(#a)" transform="translate(110.46) scale(.9375)">
    <g fill-rule="evenodd" stroke-width="1pt">
      <path d="M-117.82 0h1024v170.67h-1024z"/>
      <path fill="#fff" d="M-117.82 170.67h1024v170.66h-1024z"/>
      <path fill="#090" d="M-117.82 341.33h1024V512h-1024z"/>
      <path fill="red" d="M-117.82 512l512-256-512-256v512z"/>
      <path fill="#fff" d="M24.53 288.96l5.66-24.82H4.74l22.93-11.04-15.87-19.9 22.93 11.05 5.67-24.82 5.66 24.82 22.93-11.05-15.87 19.9 22.93 11.04H50.6l5.66 24.82-15.86-19.92z"/>
    </g>
  </g>
</svg>
